Vector-dark/symbolic/status/arch-error-symbolic.svg

<svg width="16" height="16" version="1.1" xmlns="http://www.w3.org/2000/svg">
 <path class="error" d="m8 0.5-6 2v7c0 2.07 1.5795 3.4895 2.9395 4.4395s3.0605 1.5605 3.0605 1.5605 1.7005-0.61055 3.0605-1.5605c1.36-0.96 2.9395-2.3995 2.9395-4.4395v-7l-6-2zm-3 4.5h1l2 2 2-2h1v1l-2 2 2 2v1h-1l-2-2-2 2h-1v-1l2-2-2-2v-1z" fill="#e74c3c"/>
</svg>

<svg xmlns="http://www.w3.org/2000/svg" width="16" height="16" version="1.1">
 <path style="fill:#f44336" class="error" d="M 8 1 C 6.175 2.725 3 4 2 4.25 C 2 9 4.25 14.25 8 15 C 11.75 14.25 14 9 14 4.25 C 13 4 9.825 2.725 8 1 z M 5 5 L 6 5 L 8 7 L 10 5 L 11 5 L 11 6 L 9 8 L 11 10 L 11 11 L 10 11 L 8 9 L 6 11 L 5 11 L 5 10 L 7 8 L 5 6 L 5 5 z"/>
</svg>
